X:1
T:Dashing White Sergeant
M:2/4
L:1/16
K:F
 cA| FE FG F2 FA| c=B cd c2 ag| f2d2 c2A2| d2G2 G2| cA| FE FG F2 FA|\
 c=B cd c2 aa| g2f2 e2d2| c6| cB| c=B cd e2 ef| g^f ge c2 cc| d^c de f2 fg|\
 a^g af d2| dd| e2c2 f2c2| g2c2 a2c2| b2a2 g2f2| e2d2 c2| c2| c2f2 fe fg|\
 f2c2 c4| c2g2 g^f ga| g2c2 c2| c2| c2f2 fe fg| ag fa gf eg| f8-| f4 z2||\
